src/pos-icons/dishwasher.svg

<svg height="24" viewBox="0 0 24 24" width="24" xmlns="http://www.w3.org/2000/svg"><path d="m18 2h-12a2 2 0 0 0 -2 2v16a2 2 0 0 0 2 2h12a2 2 0 0 0 2-2v-16a2 2 0 0 0 -2-2m-8 2a1 1 0 0 1 1 1 1 1 0 0 1 -1 1 1 1 0 0 1 -1-1 1 1 0 0 1 1-1m-3 0a1 1 0 0 1 1 1 1 1 0 0 1 -1 1 1 1 0 0 1 -1-1 1 1 0 0 1 1-1m11 16h-12v-12h12zm-3.33-4.67c.02.7-.26 1.38-.76 1.88-1.05 1.05-2.76 1.06-3.82 0-.5-.5-.78-1.18-.76-1.88.07-.71.3-1.39.67-2 .37-.83.81-1.6 1.33-2.33l.67-1c1.79 2.59 2.67 4.36 2.67 5.33"/></svg>

<?xml version="1.0" encoding="UTF-8"?><!DOCTYPE svg PUBLIC "-//W3C//DTD SVG 1.1//EN" "http://www.w3.org/Graphics/SVG/1.1/DTD/svg11.dtd"><svg xmlns="http://www.w3.org/2000/svg" xmlns:xlink="http://www.w3.org/1999/xlink" version="1.1" id="mdi-dishwasher" width="24" height="24" viewBox="0 0 24 24"><path d="M18,2H6A2,2 0 0,0 4,4V20A2,2 0 0,0 6,22H18A2,2 0 0,0 20,20V4A2,2 0 0,0 18,2M10,4A1,1 0 0,1 11,5A1,1 0 0,1 10,6A1,1 0 0,1 9,5A1,1 0 0,1 10,4M7,4A1,1 0 0,1 8,5A1,1 0 0,1 7,6A1,1 0 0,1 6,5A1,1 0 0,1 7,4M18,20H6V8H18V20M14.67,15.33C14.69,16.03 14.41,16.71 13.91,17.21C12.86,18.26 11.15,18.27 10.09,17.21C9.59,16.71 9.31,16.03 9.33,15.33C9.4,14.62 9.63,13.94 10,13.33C10.37,12.5 10.81,11.73 11.33,11L12,10C13.79,12.59 14.67,14.36 14.67,15.33" /></svg>
